icons/filled/square-f7.svg

<svg xmlns="http://www.w3.org/2000/svg" width="24" height="24" viewBox="0 0 24 24" fill="currentColor"><path d="M18.333 2c1.96 0 3.56 1.537 3.662 3.472l.005 .195v12.666c0 1.96 -1.537 3.56 -3.472 3.662l-.195 .005h-12.666a3.667 3.667 0 0 1 -3.662 -3.472l-.005 -.195v-12.666c0 -1.96 1.537 -3.56 3.472 -3.662l.195 -.005h12.666zm-2.333 6h-3l-.117 .007a1 1 0 0 0 -.883 .993l.007 .117a1 1 0 0 0 .993 .883h1.718l-1.188 4.757l-.022 .115a1 1 0 0 0 1.962 .37l1.5 -6l.021 -.11a1 1 0 0 0 -.991 -1.132zm-6 0h-2l-.117 .007a1 1 0 0 0 -.883 .993v6l.007 .117a1 1 0 0 0 .993 .883l.117 -.007a1 1 0 0 0 .883 -.993v-2h1l.117 -.007a1 1 0 0 0 -.117 -1.993h-1v-1h1l.117 -.007a1 1 0 0 0 -.117 -1.993z"/></svg>

<svg xmlns="http://www.w3.org/2000/svg" width="24" height="24" fill="currentColor"><path d="M18.333 2c1.96 0 3.56 1.537 3.662 3.472l.005.195v12.666c0 1.96-1.537 3.56-3.472 3.662l-.195.005H5.667a3.667 3.667 0 0 1-3.662-3.472L2 18.333V5.667c0-1.96 1.537-3.56 3.472-3.662L5.667 2zM16 8h-3l-.117.007A1 1 0 0 0 12 9l.007.117A1 1 0 0 0 13 10h1.718l-1.188 4.757-.022.115a1 1 0 0 0 1.962.37l1.5-6 .021-.11A1 1 0 0 0 16 8m-6 0H8l-.117.007A1 1 0 0 0 7 9v6l.007.117A1 1 0 0 0 8 16l.117-.007A1 1 0 0 0 9 15v-2h1l.117-.007A1 1 0 0 0 10 11H9v-1h1l.117-.007A1 1 0 0 0 10 8"/></svg>
